icons/PyTorch-Dark.svg

<svg width="256" height="256" viewBox="0 0 256 256" fill="none" xmlns="http://www.w3.org/2000/svg">
<rect width="256" height="256" rx="60" fill="#242938"/>
<path d="M180.975 90.4153L167.567 103.824C189.508 125.765 189.508 161.115 167.567 182.65C145.625 204.591 110.275 204.591 88.7404 182.65C66.7991 160.709 66.7991 125.359 88.7404 103.824L123.481 69.0835L128.357 64.2077V38L75.9413 90.4153C46.6862 119.67 46.6862 166.804 75.9413 196.059C105.196 225.314 152.33 225.314 180.975 196.059C210.23 166.6 210.23 119.67 180.975 90.4153Z" fill="#EE4C2C"/>
<path d="M154.77 87.1705C160.156 87.1705 164.522 82.8045 164.522 77.4188C164.522 72.0331 160.156 67.667 154.77 67.667C149.385 67.667 145.019 72.0331 145.019 77.4188C145.019 82.8045 149.385 87.1705 154.77 87.1705Z" fill="#EE4C2C"/>
</svg>

<svg xmlns="http://www.w3.org/2000/svg" width="256" height="256" fill="none" viewBox="0 0 256 256"><rect width="256" height="256" fill="#242938" rx="60"/><path fill="#EE4C2C" d="m180.98 90.42-13.41 13.4c21.94 21.95 21.94 57.3 0 78.83-21.94 21.94-57.3 21.94-78.83 0-21.94-21.94-21.94-57.3 0-78.83l34.74-34.74 4.88-4.87V38L75.94 90.42a74.55 74.55 0 0 0 0 105.64c29.26 29.25 76.39 29.25 105.04 0 29.25-29.46 29.25-76.39 0-105.64"/><path fill="#EE4C2C" d="M154.77 87.17a9.75 9.75 0 1 0 0-19.5 9.75 9.75 0 0 0 0 19.5"/></svg>
